public/illustrations/_mic.svg

<svg width="236" height="267" viewBox="0 0 236 267" fill="none" xmlns="http://www.w3.org/2000/svg">
<path d="M208.71 229.549L200.923 234.221C197.383 236.345 195.542 236.062 192.852 232.947C190.162 229.832 187.755 226.434 185.348 223.177C184.64 222.328 183.932 221.337 182.941 220.204C182.092 221.054 181.242 221.761 180.534 222.611C173.88 230.681 167.367 238.752 160.712 246.68C159.438 248.238 158.022 249.796 156.464 251.07C153.35 253.76 149.952 253.194 148.394 249.371C147.545 247.389 146.27 247.105 144.571 246.68C127.722 242.716 110.732 238.752 93.8833 234.787C64.5749 227.991 35.408 221.195 5.958 214.682C1.00247 213.55 -1.12131 210.435 0.577724 205.762C3.12628 198.966 5.53325 192.029 8.36498 185.374C12.3294 175.746 17.1434 166.401 22.5236 157.623C29.0366 147.004 36.3991 136.951 45.7438 128.456C50.2746 124.35 55.6549 121.519 61.6015 120.103C70.9462 117.979 80.9988 123.925 82.981 132.704C83.2642 134.12 83.4058 135.677 83.689 137.801C91.7594 130.863 99.1219 123.784 109.033 119.537C108.608 118.262 108.325 117.413 107.9 116.563C105.352 111.183 102.945 105.803 100.255 100.564C98.9804 98.0153 98.1309 95.6083 99.5468 92.7766C97.423 91.2192 95.4407 89.9451 93.6 88.3876C79.8661 77.6271 72.6453 63.61 72.6453 46.195C72.6453 35.7176 76.3265 25.5232 82.981 17.3112C89.6356 9.09923 98.8388 3.43593 109.033 1.17055C140.748 -5.62558 169.349 18.1609 172.322 46.9029C173.313 54.9733 172.181 63.1853 168.924 70.6894C168.499 71.6805 168.358 72.6714 168.499 73.6625C168.499 74.6536 168.783 75.6448 169.349 76.6359L179.685 101.555C194.268 136.951 208.852 172.348 223.435 207.744C224.285 209.868 224.992 212.134 225.559 214.399C226.408 217.797 225.842 219.213 222.869 221.195C221.311 222.328 219.612 223.177 217.63 224.452C218.196 225.726 218.763 227 219.329 228.274C224.285 238.044 229.098 247.813 234.054 257.583C234.62 258.432 234.903 259.424 235.187 260.415C235.47 261.406 235.47 262.397 235.187 263.388C234.762 264.379 234.195 265.228 233.204 265.795C232.355 266.361 231.222 266.644 230.09 266.503C228.957 266.361 227.966 265.795 227.258 264.945C226.267 263.813 225.559 262.68 224.992 261.406C220.32 252.061 215.648 242.858 210.834 233.513C210.267 232.381 209.559 231.248 208.71 229.69V229.549ZM126.731 126.191C121.068 125.483 116.396 127.182 111.865 129.448C102.803 133.837 95.5823 140.633 88.5029 147.57C82.2731 153.942 76.8928 161.021 72.5036 168.667C71.7957 169.8 70.9462 170.932 69.9551 171.923C69.3888 172.631 68.5392 173.056 67.5481 173.198C66.6985 173.198 65.7076 173.198 64.8581 172.631C63.867 172.207 63.1589 171.499 62.5925 170.508C62.1678 169.658 61.8847 168.525 62.0263 167.534C62.3095 166.118 62.7343 164.844 63.4422 163.57C66.8403 156.915 69.8135 150.119 72.2205 143.04C72.9284 141.057 73.3533 138.792 73.3533 136.668C73.3533 132.279 68.3977 129.023 64.1501 130.439C64.1501 130.722 64.0084 130.863 64.0084 131.147V134.261C64.9995 146.155 60.3272 156.066 52.5399 164.702C51.9736 165.269 51.2656 165.835 50.4161 166.118C49.5666 166.401 48.7171 166.401 47.8676 166.118C46.4517 165.835 45.1775 165.269 43.9032 164.702C40.3635 163.003 36.8239 161.304 32.8594 159.322C23.6563 173.905 17.0017 189.48 10.6303 205.621C11.6214 205.904 12.471 206.329 13.3205 206.47C30.5941 210.435 47.8676 214.399 65.1412 218.363C93.4585 224.876 121.634 231.389 149.952 238.185C152.925 238.893 154.765 238.327 156.606 236.062C161.845 229.549 167.083 223.036 172.322 216.664C172.605 216.381 172.747 215.956 172.747 215.532C172.322 214.965 171.897 214.54 171.473 214.116C169.632 212.275 167.791 210.576 165.951 208.594C165.101 207.744 164.393 206.895 163.969 205.762C163.544 204.63 163.261 203.497 163.261 202.364C163.261 201.232 163.544 200.099 163.969 198.966C164.393 197.833 165.101 196.984 166.092 196.276C169.915 192.312 174.871 189.48 180.393 188.347C182.092 188.064 183.649 187.922 185.348 187.639C183.932 184.383 182.233 183.392 179.26 183.675C175.295 184.241 171.473 185.657 168.216 188.064C160.146 193.303 153.491 199.957 146.412 206.328C145.421 207.32 144.288 208.169 143.155 208.877C142.164 209.443 141.173 209.727 140.04 209.585C138.908 209.585 137.917 209.019 137.067 208.169C136.218 207.461 135.793 206.329 135.651 205.337C135.651 204.205 135.651 203.072 136.359 202.223C136.784 201.515 137.35 200.665 137.917 200.099C140.465 197.126 143.155 194.152 145.704 191.037C147.403 189.055 148.819 187.073 151.084 184.383C150.235 183.958 149.385 183.392 148.536 182.825C146.553 181.126 144.571 179.569 142.731 177.728C141.881 177.02 141.173 176.029 140.607 175.038C140.041 174.047 139.757 172.914 139.757 171.64C139.757 170.507 139.899 169.375 140.324 168.242C140.748 167.109 141.456 166.26 142.306 165.41C146.27 160.738 151.651 157.481 157.597 156.065C158.164 155.924 158.588 155.641 159.013 155.358C156.748 154.225 154.199 153.942 151.792 154.791C145.987 156.066 140.607 158.897 136.218 163.003C129.421 169.233 122.625 175.605 115.971 181.834C114.838 182.967 113.705 183.958 112.431 184.807C111.44 185.374 110.307 185.657 109.316 185.515C108.183 185.374 107.192 184.807 106.484 184.1C105.776 183.392 105.352 182.401 105.21 181.41C105.21 180.418 105.21 179.286 105.918 178.436C106.626 177.303 107.334 176.312 108.184 175.321C112.997 169.658 117.953 163.994 122.909 158.189C121.917 157.057 121.068 156.207 120.077 155.216C117.528 152.668 114.98 150.261 112.431 147.712C110.874 146.155 109.882 144.314 110.732 142.19C111.865 138.934 113.281 135.677 116.254 133.695C119.652 131.288 122.908 128.881 126.731 126.191ZM191.578 156.773C191.153 156.632 190.587 156.491 190.162 156.349C172.181 155.075 162.977 134.403 173.596 119.82C174.304 118.829 174.729 117.837 175.296 116.988C172.747 110.9 170.481 105.095 168.075 99.2897C165.668 93.4847 163.119 87.5379 160.712 81.7328C148.252 85.4141 113.705 98.2985 111.157 100.281C112.431 102.829 113.705 105.52 114.838 108.21C116.112 110.9 117.387 113.731 118.661 116.138H126.873C129.421 116.138 131.828 116.846 134.094 117.979C136.359 119.112 138.341 120.811 139.757 122.793C144.996 129.447 145.421 136.81 143.014 144.597C142.731 145.447 142.589 146.438 142.306 146.862C146.978 146.013 151.509 145.022 156.181 144.597C162.978 144.031 170.198 148.986 172.181 157.481C173.313 162.72 172.747 168.1 170.623 172.914C170.34 173.622 170.198 174.472 169.774 175.746C171.614 175.18 172.889 174.755 174.304 174.472C178.127 173.622 181.95 172.914 185.631 174.472C188.888 175.746 191.72 178.153 193.702 180.985C195.684 183.958 196.675 187.498 196.534 191.037C196.534 193.161 195.967 195.427 195.401 197.409C194.127 202.364 191.861 207.178 188.746 211.284C191.72 215.673 194.976 219.779 198.374 223.744L214.94 214.116C207.011 194.718 199.224 175.463 191.295 156.49L191.578 156.773ZM120.077 9.94881H117.245C108.042 10.6567 99.4051 14.6214 92.8921 21.1343C86.5207 27.7889 82.8395 36.567 82.6979 45.7701C82.1316 63.0436 93.4585 80.1755 111.015 86.8301C112.856 87.538 115.121 87.538 116.962 86.8301C129.563 82.1577 142.306 77.6271 155.049 73.0963C155.898 72.8131 156.748 72.3882 157.314 71.8218C158.022 71.2555 158.447 70.5475 158.871 69.698C165.384 55.3978 164.11 41.6641 155.19 28.7798C146.978 16.745 135.227 10.6569 120.077 9.80743V9.94881ZM39.0892 151.11L47.8676 155.358C52.3984 149.128 55.3717 142.756 54.0974 134.544C48.434 139.358 43.3368 144.88 39.2308 151.11H39.0892ZM134.094 134.828C128.713 135.819 125.032 138.934 121.351 142.615L128.855 149.553C133.386 144.172 134.943 140.066 134.094 134.828ZM162.411 165.693C157.456 165.835 154.058 168.1 150.659 171.357L157.031 177.02C159.863 173.764 161.703 169.799 162.411 165.693ZM185.631 197.833C183.508 197.833 181.384 198.117 179.401 198.966C177.419 199.816 175.72 201.09 174.304 202.647L179.685 207.744L185.631 197.833ZM186.764 145.022C184.782 139.642 182.516 134.261 179.968 129.023C177.844 136.102 180.251 142.049 186.764 144.88V145.022Z" fill="#102185"/>
<path d="M120.36 69.8397C118.378 71.3971 116.679 72.813 114.98 74.0872C114.13 74.7952 113.139 75.5031 112.148 76.211C111.015 76.919 109.741 77.2023 108.467 77.0607C107.192 76.9191 106.06 76.211 105.21 75.0783C104.502 74.0872 104.219 72.8129 104.361 71.5386C104.502 70.2643 105.21 69.1317 106.201 68.4238C107.759 67.0079 109.599 65.7338 111.298 64.3179C112.29 63.4684 113.139 62.6187 114.272 61.6276L107.617 52.8493C106.201 53.8404 105.21 54.6898 104.078 55.5393C102.379 56.9552 100.821 58.3713 98.9805 59.6455C96.2903 61.6277 93.6002 61.4862 91.7596 59.3624C89.919 57.2386 90.0605 54.5485 92.6091 52.2831C94.8745 50.1593 97.2814 48.3184 99.6884 46.3362C100.113 45.9115 100.679 45.4867 101.387 44.9204C100.396 43.5045 99.4052 42.2304 98.5556 40.8145C97.9893 39.6818 97.4229 38.5492 97.2813 37.2749C97.1397 36.4254 97.2814 35.5759 97.5646 34.868C97.8478 34.1601 98.5556 33.4521 99.2636 33.0273C99.9715 32.461 100.963 32.1778 101.812 32.3194C102.662 32.3194 103.653 32.6027 104.361 33.169C105.21 33.877 106.06 34.7264 106.768 35.5759C107.476 36.4254 108.184 37.2747 109.175 38.549L114.98 33.7352C114.272 32.7441 113.705 31.8948 113.139 31.0452C112.29 29.771 111.298 28.638 110.449 27.2221C108.608 24.2488 108.891 21.7005 111.157 20.0015C113.422 18.3024 116.112 18.8688 118.378 21.4173C119.935 23.1164 121.209 25.0986 122.767 27.0808C124.749 25.5233 126.307 24.2488 128.147 22.9746C128.997 22.2666 129.988 21.5588 130.979 20.9925C131.97 20.4262 133.103 20.2845 134.094 20.5677C135.227 20.8508 136.076 21.4171 136.784 22.2666C137.492 23.1161 137.775 24.249 137.775 25.2401C137.775 26.3728 137.35 27.364 136.642 28.2135C135.651 29.2046 134.66 30.1957 133.528 31.0452C132.395 32.0363 131.404 32.8857 130.271 33.7352C129.846 34.16 129.422 34.5847 128.997 35.1511L135.935 44.3542C138.483 42.372 140.89 40.5314 143.297 38.6907C144.43 37.8412 145.562 36.9918 146.837 36.2838C147.828 35.7175 148.961 35.5757 149.952 35.7173C151.084 35.8589 152.075 36.5671 152.642 37.4166C153.35 38.2661 153.774 39.3987 153.633 40.5314C153.633 41.6641 153.208 42.655 152.359 43.5045C151.084 44.7788 149.81 46.0531 148.394 47.0442C146.412 48.6016 144.43 50.3008 142.023 52.1414C143.156 53.6989 144.288 55.2562 145.421 56.6721C146.27 57.6632 146.978 58.7958 147.545 59.7869C148.252 60.778 148.394 62.0523 148.252 63.3266C147.969 64.6008 147.403 65.5922 146.412 66.4417C145.421 67.1497 144.147 67.4326 142.872 67.291C141.598 67.1494 140.465 66.4416 139.757 65.5921C138.341 64.0346 137.209 62.3357 135.935 60.7783C135.51 60.2119 134.943 59.6455 134.377 58.9376C131.687 59.7871 130.271 61.9108 127.864 63.4683C129.138 65.3089 130.271 66.8663 131.404 68.4238C131.97 69.1317 132.395 69.9812 132.536 70.8307C132.678 71.6802 132.536 72.6715 132.253 73.521C131.97 74.229 131.545 74.9367 130.837 75.5031C130.271 76.0694 129.422 76.3525 128.714 76.4941C127.864 76.6357 127.015 76.4943 126.307 76.3527C125.599 76.0696 124.891 75.6448 124.325 74.9369C122.909 73.2379 121.493 71.5385 120.218 69.6979L120.36 69.8397ZM122.201 55.6811L128.43 50.7255L121.351 41.5225L115.404 46.6197L122.201 55.6811Z" fill="#102185"/>
</svg>

<svg xmlns="http://www.w3.org/2000/svg" width="236" height="267" fill="none" viewBox="0 0 236 267"><path fill="#102185" d="m208.71 229.549-7.787 4.672c-3.54 2.124-5.381 1.841-8.071-1.274s-5.097-6.513-7.504-9.77c-.708-.849-1.416-1.84-2.407-2.973-.849.85-1.699 1.557-2.407 2.407-6.654 8.07-13.167 16.141-19.822 24.069-1.274 1.558-2.69 3.116-4.248 4.39-3.114 2.69-6.512 2.124-8.07-1.699-.849-1.982-2.124-2.266-3.823-2.691-16.849-3.964-33.839-7.928-50.688-11.893-29.308-6.796-58.475-13.592-87.925-20.105-4.956-1.132-7.08-4.247-5.38-8.92 2.548-6.796 4.955-13.733 7.787-20.388 3.964-9.628 8.778-18.973 14.159-27.751 6.513-10.619 13.875-20.672 23.22-29.167a35.8 35.8 0 0 1 15.858-8.353c9.344-2.124 19.397 3.822 21.379 12.601.283 1.416.425 2.973.708 5.097 8.07-6.938 15.433-14.017 25.344-18.264-.425-1.275-.708-2.124-1.133-2.974-2.548-5.38-4.955-10.76-7.645-15.999-1.275-2.549-2.124-4.956-.708-7.787-2.124-1.558-4.106-2.832-5.947-4.39-13.734-10.76-20.955-24.777-20.955-42.192 0-10.477 3.682-20.672 10.336-28.884a46.54 46.54 0 0 1 26.052-16.14c31.715-6.797 60.316 16.99 63.289 45.732.991 8.07-.141 16.282-3.398 23.786q-.637 1.487-.425 2.974 0 1.486.85 2.973l10.336 24.919 43.75 106.189c.85 2.124 1.557 4.39 2.124 6.655.849 3.398.283 4.814-2.69 6.796-1.558 1.133-3.257 1.982-5.239 3.257l1.699 3.822c4.956 9.77 9.769 19.539 14.725 29.309.566.849.849 1.841 1.133 2.832a5.3 5.3 0 0 1 0 2.973c-.425.991-.992 1.84-1.983 2.407-.849.566-1.982.849-3.114.708a4.38 4.38 0 0 1-2.832-1.558 13.7 13.7 0 0 1-2.266-3.539 2576 2576 0 0 0-14.158-27.893c-.567-1.132-1.275-2.265-2.124-3.823zm-81.979-103.358c-5.663-.708-10.335.991-14.866 3.257-9.062 4.389-16.283 11.185-23.362 18.122-6.23 6.372-11.61 13.451-16 21.097-.707 1.133-1.557 2.265-2.548 3.256-.566.708-1.416 1.133-2.407 1.275-.85 0-1.84 0-2.69-.567-.991-.424-1.7-1.132-2.266-2.123-.424-.85-.707-1.983-.566-2.974.283-1.416.708-2.69 1.416-3.964 3.398-6.655 6.372-13.451 8.779-20.53.707-1.983 1.132-4.248 1.132-6.372 0-4.389-4.955-7.645-9.203-6.229 0 .283-.142.424-.142.708v3.114c.992 11.894-3.68 21.805-11.468 30.441-.566.567-1.274 1.133-2.124 1.416a3.93 3.93 0 0 1-2.548 0c-1.416-.283-2.69-.849-3.965-1.416-3.54-1.699-7.08-3.398-11.044-5.38-9.203 14.583-15.857 30.158-22.229 46.299.991.283 1.841.708 2.69.849l51.821 11.893c28.317 6.513 56.493 13.026 84.811 19.822 2.973.708 4.813.142 6.654-2.123 5.239-6.513 10.477-13.026 15.716-19.398.283-.283.425-.708.425-1.132-.425-.567-.85-.992-1.274-1.416-1.841-1.841-3.682-3.54-5.522-5.522-.85-.85-1.558-1.699-1.982-2.832-.425-1.132-.708-2.265-.708-3.398 0-1.132.283-2.265.708-3.398.424-1.133 1.132-1.982 2.123-2.69 3.823-3.964 8.779-6.796 14.301-7.929 1.699-.283 3.256-.425 4.955-.708-1.416-3.256-3.115-4.247-6.088-3.964-3.965.566-7.787 1.982-11.044 4.389-8.07 5.239-14.725 11.893-21.804 18.264-.991.992-2.124 1.841-3.257 2.549-.991.566-1.982.85-3.115.708-1.132 0-2.123-.566-2.973-1.416-.849-.708-1.274-1.84-1.416-2.832 0-1.132 0-2.265.708-3.114.425-.708.991-1.558 1.558-2.124 2.548-2.973 5.238-5.947 7.787-9.062 1.699-1.982 3.115-3.964 5.38-6.654-.849-.425-1.699-.991-2.548-1.558-1.983-1.699-3.965-3.256-5.805-5.097-.85-.708-1.558-1.699-2.124-2.69q-.85-1.487-.85-3.398c0-1.133.142-2.265.567-3.398s1.132-1.982 1.982-2.832c3.964-4.672 9.345-7.929 15.291-9.345.567-.141.991-.424 1.416-.707-2.265-1.133-4.814-1.416-7.221-.567a33.24 33.24 0 0 0-15.574 8.212c-6.797 6.23-13.593 12.602-20.247 18.831-1.133 1.133-2.266 2.124-3.54 2.973-.991.567-2.124.85-3.115.708-1.133-.141-2.124-.708-2.832-1.415s-1.132-1.699-1.274-2.69c0-.992 0-2.124.708-2.974a25 25 0 0 1 2.266-3.115c4.813-5.663 9.769-11.327 14.725-17.132-.992-1.132-1.841-1.982-2.832-2.973-2.549-2.548-5.097-4.955-7.646-7.504-1.557-1.557-2.549-3.398-1.699-5.522 1.133-3.256 2.549-6.513 5.522-8.495 3.398-2.407 6.654-4.814 10.477-7.504m64.847 30.582c-.425-.141-.991-.282-1.416-.424-17.981-1.274-27.185-21.946-16.566-36.529.708-.991 1.133-1.983 1.7-2.832-2.549-6.088-4.815-11.893-7.221-17.698-2.407-5.805-4.956-11.752-7.363-17.557-12.46 3.681-47.007 16.566-49.555 18.548 1.274 2.548 2.548 5.239 3.681 7.929 1.274 2.69 2.549 5.521 3.823 7.928h8.212c2.548 0 4.955.708 7.221 1.841s4.247 2.832 5.663 4.814c5.239 6.654 5.664 14.017 3.257 21.804-.283.85-.425 1.841-.708 2.265 4.672-.849 9.203-1.84 13.875-2.265 6.797-.566 14.017 4.389 16 12.884a25.05 25.05 0 0 1-1.558 15.433c-.283.708-.425 1.558-.849 2.832 1.84-.566 3.115-.991 4.53-1.274 3.823-.85 7.646-1.558 11.327 0 3.257 1.274 6.089 3.681 8.071 6.513a16.96 16.96 0 0 1 2.832 10.052c0 2.124-.567 4.39-1.133 6.372-1.274 4.955-3.54 9.769-6.655 13.875 2.974 4.389 6.23 8.495 9.628 12.46l16.566-9.628c-7.929-19.398-15.716-38.653-23.645-57.626zM120.077 9.949h-2.832a38.62 38.62 0 0 0-24.353 11.185C86.521 27.79 82.84 36.567 82.698 45.77c-.566 17.274 10.76 34.406 28.317 41.06 1.841.708 4.106.708 5.947 0 12.601-4.672 25.344-9.203 38.087-13.734.849-.283 1.699-.708 2.265-1.274.708-.567 1.133-1.275 1.557-2.124 6.513-14.3 5.239-28.034-3.681-40.918-8.212-12.035-19.963-18.123-35.113-18.973zM39.089 151.11l8.779 4.248c4.53-6.23 7.504-12.602 6.23-20.814-5.664 4.814-10.761 10.336-14.867 16.566zm95.005-16.282c-5.381.991-9.062 4.106-12.743 7.787l7.504 6.938c4.531-5.381 6.088-9.487 5.239-14.725m28.317 30.865c-4.955.142-8.353 2.407-11.752 5.664l6.372 5.663a23.4 23.4 0 0 0 5.38-11.327m23.22 32.14c-2.123 0-4.247.284-6.23 1.133-1.982.85-3.681 2.124-5.097 3.681l5.381 5.097zm1.133-52.811a175 175 0 0 0-6.796-15.999c-2.124 7.079.283 13.026 6.796 15.857z"/><path fill="#102185" d="M120.36 69.84c-1.982 1.557-3.681 2.973-5.38 4.247-.85.708-1.841 1.416-2.832 2.124a5.7 5.7 0 0 1-3.681.85c-1.275-.142-2.407-.85-3.257-1.983-.708-.99-.991-2.265-.849-3.54a4.47 4.47 0 0 1 1.84-3.114c1.558-1.416 3.398-2.69 5.097-4.106.992-.85 1.841-1.7 2.974-2.69l-6.655-8.779c-1.416.991-2.407 1.84-3.539 2.69-1.699 1.416-3.257 2.832-5.097 4.106-2.69 1.983-5.38 1.841-7.221-.283s-1.7-4.814.85-7.079c2.264-2.124 4.671-3.965 7.078-5.947.425-.425.991-.85 1.699-1.416-.991-1.416-1.982-2.69-2.831-4.105-.567-1.133-1.133-2.266-1.275-3.54-.141-.85 0-1.7.284-2.407.283-.708.99-1.416 1.699-1.84.708-.567 1.699-.85 2.548-.709.85 0 1.841.284 2.549.85a19.4 19.4 0 0 1 2.407 2.407c.708.85 1.416 1.699 2.407 2.973l5.805-4.814a95 95 0 0 1-1.841-2.69c-.849-1.274-1.841-2.407-2.69-3.823-1.841-2.973-1.558-5.521.708-7.22 2.265-1.7 4.955-1.133 7.221 1.415 1.557 1.7 2.831 3.682 4.389 5.664 1.982-1.558 3.54-2.832 5.38-4.106a20 20 0 0 1 2.832-1.983c.991-.566 2.124-.707 3.115-.424 1.133.283 1.982.85 2.69 1.699s.991 1.982.991 2.973c0 1.133-.425 2.124-1.133 2.974-.991.99-1.982 1.982-3.114 2.831-1.133.991-2.124 1.84-3.257 2.69-.425.425-.849.85-1.274 1.416l6.938 9.203c2.548-1.982 4.955-3.823 7.362-5.663 1.133-.85 2.265-1.7 3.54-2.407.991-.566 2.124-.708 3.115-.567 1.132.142 2.123.85 2.69 1.7.708.85 1.132 1.982.991 3.114q0 1.7-1.274 2.974c-1.275 1.274-2.549 2.548-3.965 3.54-1.982 1.557-3.964 3.256-6.371 5.096 1.133 1.558 2.265 3.115 3.398 4.531.849.991 1.557 2.124 2.124 3.115.707.991.849 2.265.707 3.54-.283 1.274-.849 2.265-1.84 3.115-.991.708-2.265.99-3.54.849s-2.407-.85-3.115-1.699c-1.416-1.557-2.548-3.256-3.822-4.814-.425-.566-.992-1.133-1.558-1.84-2.69.85-4.106 2.973-6.513 4.53 1.274 1.84 2.407 3.398 3.54 4.956.566.708.991 1.557 1.132 2.407.142.85 0 1.84-.283 2.69-.283.708-.708 1.416-1.416 1.982-.566.566-1.415.85-2.123.991-.85.142-1.699 0-2.407-.141-.708-.283-1.416-.708-1.982-1.416-1.416-1.7-2.832-3.398-4.107-5.24zm1.841-14.159 6.229-4.956-7.079-9.202-5.947 5.097z"/></svg>
